X: 14937
T: Gavotte De Lorient
R: barndance
M: 4/4
K: Bminor
FB AB cd ef|ed cd B2 BA|FB AB cd ef|ed cd B2 BA|
FB AB cd ef|ed cf ed cd|FB AB cd ef|ed cd B4|
b3a fe df|ec de f~B3|b3a fe df|ed cd B2 BA|
b3a fe df|ec de f~B3|FB AB cd ef|ed cd B2 BA||

